X:1
T:Jesus Lives, 78.78.88
T:Jesus Lives, 78.78.88
T:Andrew L. Skoog, 1921
T:Public Domain Courtesy of the Cyber Hymnal™
C:Andrew L. Skoog, 1921
Z:Public Domain
Z:Courtesy of the Cyber Hymnal™
%%score ( 1 2 ) ( 3 4 )
L:1/8
Q:1/4=110
M:4/4
K:C
V:1 treble 
V:2 treble 
V:3 bass 
V:4 bass 
V:1
 C>E | G3 G [FA]2 [FB]2 | [Ec]6 [Fc]>[GB] | [FA]3 [Ac] [GB]2 [FA]2 | [FA]4 [EG]2 [EG]>[FA] | %5
 [EG]2 [DF]2 [DF]2 [EG]2 | [CE]6 [CE]>[EG] | [DF]2 [DF]2 [FA]2 [EG]2 | [EG]4 [CE]2 [EG]>[EG] | %9
 [FA]2 [FA]2 [GB]2 [GB]2 | [Ac]2 [Ac]2 [Gd]2 [Gd]2 | !fermata![Ge]3 [Gc] [FA]2 [FG]2 | %12
 [Fd]4 [Ec]4 |] %13
V:2
 C>E | G3 G x4 | x8 | x8 | x8 | x8 | x8 | x8 | x8 | x8 | x8 | x8 | x8 |] %13
V:3
 C,>E, | G,3 G, [G,,G,]2 [G,,G,]2 | [C,G,]6 [C,C]>[E,C] | [F,C]3 [F,C] [F,C]2 [F,C]2 | %4
 [C,C]4 [C,C]2 [C,C]>[C,C] | [G,C]2 [G,B,]2 [B,,G,]2 [B,,G,]2 | [C,G,]6 [C,G,]>[C,G,] | %7
 G,2 G,2 [G,,G,]2 G,2 | [C,G,]4 [C,G,]2 [C,C]>[C,C] | [F,C]2 [D,C]2 [G,D]2 [E,E]2 | %10
 [A,E]2 [F,F]2 [B,D]2 [G,B,]2 | !fermata!C3 [E,C] [F,C]2 [G,B,]2 | [G,,B,]4 [C,G,]4 |] %13
V:4
 C,>E, | G,3 G, x4 | x8 | x8 | x8 | x8 | x8 | x6 (3(G,,{A,,,}A,,B,,) | x8 | x8 | x8 | x8 | x8 |] %13

